contributed-vectors/adobe_photoshop_sketch.svg

<svg width="192" height="192" viewBox="0 0 192 192" fill="none" xmlns="http://www.w3.org/2000/svg">
<g clip-path="url(#clip0)">
<path fill-rule="evenodd" clip-rule="evenodd" d="M29 167C26.24 167 24 164.76 24 162V29C24 26.24 26.24 24 29 24H162C164.76 24 167 26.24 167 29V162C167 164.76 164.76 167 162 167H29Z" fill="#56595B"/>
<path d="M162 29V162H29V29H162ZM162 19H29C23.48 19 19 23.48 19 29V162C19 167.52 23.48 172 29 172H162C167.52 172 172 167.52 172 162V29C172 23.48 167.52 19 162 19Z" fill="#9ABEFF"/>
<path d="M72.8799 69.6C71.6499 70.5 71.2899 71.39 71.1599 71.94C71.1299 72.05 70.7299 73.98 72.1199 75.17C73.1099 76.02 74.5999 76.13 75.8299 75.45C77.7899 74.61 80.7499 73.36 84.3599 71.87C95.6699 67.22 98.6199 66.38 101.49 65.82C103.7 65.39 107.12 64.88 111.46 64.93C110.27 65.5 109.08 66.1 107.88 66.72C95.2799 73.28 84.9299 81.45 76.4499 89.97C76.3499 90.16 75.8499 91.11 76.2299 91.96C76.6999 93 78.3399 93.59 80.0299 92.89C81.5599 92.04 83.6699 90.94 86.2499 89.79C89.6899 88.26 92.1299 87.47 96.0499 86.2C96.0499 86.2 103.8 83.7 108.54 84.82C108.67 84.85 109.05 84.94 109.07 85.12C109.09 85.27 108.86 85.42 108.73 85.49C102.59 88.97 95.8399 93.44 88.9899 99.2C86.2099 101.54 83.6599 103.87 81.3299 106.17C81.2199 106.39 81.2099 106.65 81.3299 106.83C81.5099 107.1 81.9799 107.19 82.3599 106.92C85.7899 103.73 88.8499 101.35 91.0999 99.72C95.2499 96.71 98.7299 94.71 104.79 91.26C108.36 89.23 111.37 87.6 113.49 86.48C113.7 86.32 114.55 85.64 114.49 84.77C114.47 84.43 114.28 83.81 112.95 83.07C110.03 81.44 105.94 81.67 105.48 81.69C101.41 81.95 97.1999 82.73 92.2499 84.33C90.2899 84.96 88.6899 85.56 87.6199 85.98C91.0599 83.27 94.8999 80.48 99.1699 77.73C105.69 73.53 111.94 70.24 117.6 67.64C117.89 67.55 119.13 67.1 119.67 65.87C120.29 64.46 119.52 63.05 119.29 62.64C118.73 61.62 117.45 60.23 113.99 59.48C101.35 56.73 77.2399 66.42 72.8799 69.6Z" fill="white"/>
<path d="M92.7197 118.76C95.2497 118.24 96.8997 116.53 97.6697 115.75C98.8697 114.52 99.5297 113.39 99.9297 112.72L100.1 112.43C100.15 112.35 100.21 112.26 100.27 112.18L94.5897 122L92.7197 118.76Z" fill="#56595B"/>
<path d="M102.61 105.51C102.15 105.51 101.69 105.56 101.21 105.67C99.1 106.18 96.99 107.94 95.84 109.78C95.44 110.42 95.04 111.26 94.07 112.26C93.39 112.96 92.5 113.85 91.3 113.91C91.28 113.91 91.26 113.91 91.24 113.91C91.04 113.91 90.59 113.85 89.29 113.25C87.05 112.22 86.44 111.5 85.54 111.5C85.48 111.5 85.42 111.5 85.35 111.51C84.87 111.56 84.2 111.81 83.46 112.73L94.59 132L108.46 107.98C108.02 107.6 105.56 105.51 102.61 105.51Z" fill="#9ABEFF"/>
</g>
<defs>
<clipPath id="clip0">
<rect width="192" height="192" fill="white"/>
</clipPath>
</defs>
</svg>

<svg xmlns="http://www.w3.org/2000/svg" width="192" height="192" fill="none"><g clip-path="url(#a)"><path fill="#56595B" fill-rule="evenodd" d="M29 167c-2.76 0-5-2.24-5-5V29c0-2.76 2.24-5 5-5h133c2.76 0 5 2.24 5 5v133c0 2.76-2.24 5-5 5H29Z" clip-rule="evenodd"/><path fill="#9ABEFF" d="M162 29v133H29V29h133Zm0-10H29c-5.52 0-10 4.48-10 10v133c0 5.52 4.48 10 10 10h133c5.52 0 10-4.48 10-10V29c0-5.52-4.48-10-10-10Z"/><path fill="#fff" d="M72.88 69.6c-1.23.9-1.59 1.79-1.72 2.34-.03.11-.43 2.04.96 3.23.99.85 2.48.96 3.71.28 1.96-.84 4.92-2.09 8.53-3.58 11.31-4.65 14.26-5.49 17.13-6.05 2.21-.43 5.63-.94 9.97-.89-1.19.57-2.38 1.17-3.58 1.79-12.6 6.56-22.95 14.73-31.43 23.25-.1.19-.6 1.14-.22 1.99.47 1.04 2.11 1.63 3.8.93a79.51 79.51 0 0 1 6.22-3.1c3.44-1.53 5.88-2.32 9.8-3.59 0 0 7.75-2.5 12.49-1.38.13.03.51.12.53.3.02.15-.21.3-.34.37a131.018 131.018 0 0 0-27.4 20.68c-.11.22-.12.48 0 .66.18.27.65.36 1.03.09 3.43-3.19 6.49-5.57 8.74-7.2 4.15-3.01 7.63-5.01 13.69-8.46 3.57-2.03 6.58-3.66 8.7-4.78.21-.16 1.06-.84 1-1.71-.02-.34-.21-.96-1.54-1.7-2.92-1.63-7.01-1.4-7.47-1.38-4.07.26-8.28 1.04-13.23 2.64-1.96.63-3.56 1.23-4.63 1.65 3.44-2.71 7.28-5.5 11.55-8.25 6.52-4.2 12.77-7.49 18.43-10.09.29-.09 1.53-.54 2.07-1.77.62-1.41-.15-2.82-.38-3.23-.56-1.02-1.84-2.41-5.3-3.16-12.64-2.75-36.75 6.94-41.11 10.12Z"/><path fill="#56595B" d="M92.72 118.76c2.53-.52 4.18-2.23 4.95-3.01 1.2-1.23 1.86-2.36 2.26-3.03l.17-.29c.05-.08.11-.17.17-.25L94.59 122l-1.87-3.24Z"/><path fill="#9ABEFF" d="M102.61 105.51c-.46 0-.92.05-1.4.16-2.11.51-4.22 2.27-5.37 4.11-.4.64-.8 1.48-1.77 2.48-.68.7-1.57 1.59-2.77 1.65h-.06c-.2 0-.65-.06-1.95-.66-2.24-1.03-2.85-1.75-3.75-1.75-.06 0-.12 0-.19.01-.48.05-1.15.3-1.89 1.22L94.59 132l13.87-24.02c-.44-.38-2.9-2.47-5.85-2.47Z"/></g><defs><clipPath id="a"><path fill="#fff" d="M0 0h192v192H0z"/></clipPath></defs></svg>
